svgs/light/conveyor-belt.svg

<svg xmlns="http://www.w3.org/2000/svg" viewBox="0 0 640 512"><!-- Font Awesome Pro 6.0.0-alpha2 by @fontawesome - https://fontawesome.com License - https://fontawesome.com/license (Commercial License) --><path d="M544 320H96C43 320 0 363 0 416S43 512 96 512H544C597 512 640 469 640 416S597 320 544 320ZM544 480H96C60.75 480 32 451.25 32 416S60.75 352 96 352H544C579.25 352 608 380.75 608 416S579.25 480 544 480ZM192 288H448C483.346 288 512 259.346 512 224V64C512 28.652 483.346 0 448 0H192C156.654 0 128 28.652 128 64V224C128 259.346 156.654 288 192 288ZM272 32H368V102.125L327.156 81.687C322.656 79.437 317.344 79.437 312.844 81.687L272 102.125V32ZM160 64C160 46.355 174.355 32 192 32H240V128C240 133.531 242.875 138.688 247.594 141.625C252.25 144.437 258.188 144.781 263.156 142.312L320 113.875L376.844 142.313C379.094 143.438 381.562 144 384 144C386.938 144 389.844 143.188 392.406 141.625C397.125 138.688 400 133.531 400 128V32H448C465.645 32 480 46.355 480 64V224C480 241.645 465.645 256 448 256H192C174.355 256 160 241.645 160 224V64ZM128 392C114.746 392 104 402.744 104 416C104 429.254 114.746 440 128 440S152 429.254 152 416C152 402.744 141.254 392 128 392ZM320 392C306.746 392 296 402.744 296 416C296 429.254 306.746 440 320 440S344 429.254 344 416C344 402.744 333.254 392 320 392ZM512 392C498.746 392 488 402.744 488 416C488 429.254 498.746 440 512 440S536 429.254 536 416C536 402.744 525.254 392 512 392Z"/></svg>

<svg xmlns="http://www.w3.org/2000/svg" viewBox="0 0 640 512"><!--! Font Awesome Pro 6.3.0 by @fontawesome - https://fontawesome.com License - https://fontawesome.com/license (Commercial License) Copyright 2023 Fonticons, Inc. --><path d="M544 320h-448c-53 0-96 43-96 96s43 96 96 96h448c53 0 96-43 96-96S597 320 544 320zM544 480H96c-35.25 0-64-28.75-64-64s28.75-64 64-64h448c35.25 0 64 28.75 64 64S579.3 480 544 480zM192 288h256c35.35 0 64-28.65 64-64V64c0-35.35-28.65-64-64-64H192C156.7 0 128 28.65 128 64v160C128 259.3 156.7 288 192 288zM272 32h96v70.13l-40.84-20.44c-4.5-2.25-9.812-2.25-14.31 0L272 102.1V32zM160 64c0-17.64 14.36-32 32-32h48v96c0 5.531 2.875 10.69 7.594 13.62c4.656 2.812 10.59 3.156 15.56 .6875L320 113.9l56.84 28.44C379.1 143.4 381.6 144 384 144c2.938 0 5.844-.8125 8.406-2.375C397.1 138.7 400 133.5 400 128V32H448c17.64 0 32 14.36 32 32v160c0 17.64-14.36 32-32 32H192C174.4 256 160 241.6 160 224V64zM128 392c-13.25 0-24 10.74-24 24c0 13.25 10.75 24 24 24S152 429.3 152 416C152 402.7 141.3 392 128 392zM320 392c-13.25 0-24 10.74-24 24c0 13.25 10.75 24 24 24s24-10.75 24-24C344 402.7 333.3 392 320 392zM512 392c-13.25 0-24 10.74-24 24c0 13.25 10.75 24 24 24s24-10.75 24-24C536 402.7 525.3 392 512 392z"/></svg>
